Newaita/actions/scalable/zoom-previous.svg

<?xml version="1.0" encoding="UTF-8"?>
<svg xmlns="http://www.w3.org/2000/svg" xmlns:xlink="http://www.w3.org/1999/xlink" width="512pt" height="512pt" viewBox="0 0 512 512" version="1.1">
<g id="surface1">
<path style=" stroke:none;fill-rule:nonzero;fill:rgb(47.058824%,56.470591%,61.176473%);fill-opacity:1;" d="M 52.921875 25.167969 C 35.332031 25.167969 21.167969 39.332031 21.167969 56.921875 L 21.167969 109.84375 L 52.921875 109.84375 L 52.921875 78.089844 C 52.921875 66.363281 62.363281 56.921875 74.089844 56.921875 L 105.84375 56.921875 L 105.84375 25.167969 Z M 402.203125 25.167969 L 402.203125 56.921875 L 433.957031 56.921875 C 445.6875 56.921875 455.125 66.363281 455.125 78.089844 L 455.125 109.84375 L 486.878906 109.84375 L 486.878906 56.921875 C 486.878906 39.332031 472.71875 25.167969 455.125 25.167969 Z M 21.167969 406.207031 L 21.167969 459.128906 C 21.167969 476.71875 35.332031 490.878906 52.921875 490.878906 L 105.84375 490.878906 L 105.84375 459.128906 L 74.089844 459.128906 C 62.363281 459.128906 52.921875 449.6875 52.921875 437.957031 L 52.921875 406.207031 Z M 455.125 406.207031 L 455.125 437.957031 C 455.125 449.6875 445.6875 459.128906 433.957031 459.128906 L 402.203125 459.128906 L 402.203125 490.878906 L 455.125 490.878906 C 472.71875 490.878906 486.878906 476.71875 486.878906 459.128906 L 486.878906 406.207031 Z M 455.125 406.207031 "/>
<path style=" stroke:none;fill-rule:evenodd;fill:rgb(25.882354%,25.882354%,25.882354%);fill-opacity:1;" d="M 315.582031 130.898438 C 324.15625 130.902344 331.871094 136.101562 335.09375 144.050781 C 338.320312 151.996094 336.40625 161.101562 330.257812 167.078125 L 239.3125 258.023438 L 330.257812 348.972656 C 335.695312 354.269531 337.863281 362.085938 335.929688 369.429688 C 333.996094 376.769531 328.261719 382.507812 320.917969 384.441406 C 313.574219 386.371094 305.761719 384.207031 300.460938 378.765625 L 194.617188 272.921875 C 186.390625 264.695312 186.390625 251.355469 194.617188 243.125 L 300.460938 137.28125 C 304.429688 133.199219 309.886719 130.894531 315.582031 130.898438 Z M 315.582031 130.898438 "/>
</g>
</svg>

<svg xmlns="http://www.w3.org/2000/svg" width="512pt" height="512pt" viewBox="0 0 512 512"><path d="M52.922 25.168c-17.59 0-31.754 14.164-31.754 31.754v52.922h31.754V78.09A21.122 21.122 0 0 1 74.09 56.922h31.754V25.168zm349.281 0v31.754h31.754a21.12 21.12 0 0 1 21.168 21.168v31.754h31.754V56.922c0-17.59-14.16-31.754-31.754-31.754zM21.168 406.207v52.922c0 17.59 14.164 31.75 31.754 31.75h52.922v-31.75H74.09a21.123 21.123 0 0 1-21.168-21.172v-31.75zm433.957 0v31.75a21.12 21.12 0 0 1-21.168 21.172h-31.754v31.75h52.922c17.594 0 31.754-14.16 31.754-31.75v-52.922zm0 0" fill="#78909c"/><path d="M315.582 130.898a21.063 21.063 0 0 1 19.512 13.153 21.061 21.061 0 0 1-4.836 23.027l-90.945 90.945 90.945 90.95a21.071 21.071 0 1 1-29.797 29.793L194.617 272.922c-8.226-8.227-8.226-21.567 0-29.797l105.844-105.844a21.075 21.075 0 0 1 15.121-6.383zm0 0" fill-rule="evenodd" fill="#424242"/></svg>
